X:EJ-53
T:Engels Pols
T:(Totakt-pols, nr. EJ-53)
S:efter Erik Jensen
R:Totakt-pols
B:Totakt-pols
O:Boes, Århus amt, Danmark
N:Låt nr. 1 på CD:n "[[!Totakt-pols]]" av Åke Persson, Ethel Wieslander m fl. Noterna kommer från nothäftet som kan köpas med CD:n så vissa avvikelser kan förekomma. Låten har där beteckningen EJ-53. [[Platser/Danmark|Fler låtar från Danmark...]]
M:2/4
L:1/16
K:G
|:G2GG G2GG|G4 g4|d2(Bd) c2(Ac)|B2G2F2D2|G2GG G2GG|G4 g4|d2(Bd) c2(Ac)|A4 G4:|
|:B2(dB) A4|F2F2 D4|B2(dB) A4|G4 g4|d2(Bd) c2(Ac)|A4 G4:|
|:d4 (d2B2)|e4 (e2c2)|B2d2B2G2|F2G2F2D2|d4 (d2B2)|e4 (e2c2)|B2d2F2A2|G4 G,4:|
(:musicend:)

(:music:)
